packages/bezier-icons/icons/siren.svg

<svg width="24" height="24" viewBox="0 0 24 24" fill="none" xmlns="http://www.w3.org/2000/svg">
<path fill-rule="evenodd" clip-rule="evenodd" d="M12 4C11.4477 4 11 3.55228 11 3V1C11 0.447715 11.4477 0 12 0C12.5523 0 13 0.447715 13 1V3C13 3.55228 12.5523 4 12 4ZM6.53554 5.53554C6.14501 5.92606 5.51185 5.92606 5.12132 5.53554L3.70711 4.12132C3.31658 3.7308 3.31658 3.09763 3.70711 2.70711C4.09763 2.31658 4.7308 2.31658 5.12132 2.70711L6.53554 4.12132C6.92606 4.51185 6.92606 5.14501 6.53554 5.53554ZM17.7071 4.12132C17.3166 4.51184 17.3166 5.14501 17.7071 5.53553C18.0976 5.92606 18.7308 5.92606 19.1213 5.53553L20.5355 4.12132C20.9261 3.7308 20.9261 3.09763 20.5355 2.70711C20.145 2.31658 19.5118 2.31658 19.1213 2.70711L17.7071 4.12132ZM12.0071 5.00009C8.14109 5.00009 5.00708 8.1341 5.00708 12.0001V20.0001H4.00708V22.0001H20.0071V20.0001H19.0071V12.0001C19.0071 8.1341 15.8731 5.00009 12.0071 5.00009ZM9 9.99999C8.44772 9.99999 8 10.4477 8 11V17C8 17.5523 8.44772 18 9 18C9.55228 18 10 17.5523 10 17V11C10 10.4477 9.55228 9.99999 9 9.99999Z" fill="#313234"/>
</svg>

<svg xmlns="http://www.w3.org/2000/svg" width="24" height="24" fill="none" viewBox="0 0 24 24"><path fill="#313234" fill-rule="evenodd" d="M12 4a1 1 0 0 1-1-1V1a1 1 0 1 1 2 0v2a1 1 0 0 1-1 1M6.536 5.536a1 1 0 0 1-1.415 0L3.707 4.12a1 1 0 1 1 1.414-1.414l1.415 1.414a1 1 0 0 1 0 1.415M17.707 4.12a1 1 0 0 0 1.414 1.415l1.415-1.415a1 1 0 1 0-1.415-1.414zm-5.7.88a7 7 0 0 0-7 7v8h-1v2h16v-2h-1v-8a7 7 0 0 0-7-7M9 10a1 1 0 0 0-1 1v6a1 1 0 1 0 2 0v-6a1 1 0 0 0-1-1" clip-rule="evenodd"/></svg>
